X:78
T:RVW2/2/78 The Indian Lass
C:John Denny, Billericay, Essex, 25 April 1904
L:1/8
Q:1/4=80
M:4/4
I:linebreak $
K:G
"^(Editorial suggestion)  " (GB) | d2 de"^(a)" ddBA | (eA) A>A A3 A |$ (cB)cd (cB)AG | 
w: As _|I was a- walk- ing in a|far _ dis- tant shore I|called _ at an ale * house to|
A2 d^c d3 d | d2 (de) (dB)Ge |$ (eg)fe g3 g | d2 de (BG)EG | B2 A>G G2 ||$ GB | 
w: spend half an hour. As|I sat _ smo- * king and|ta- * king my glass per-|chance there came in _ (a) fine|young In- dian lass.||
d2 de"^(a) var." d2 BA | eA A>A A3 A |$ cBcd cBAG | A2 d^c d3 d | d2 de dBGe |$ egfe g3 g | 
w: ||||||
d2 de BGEG | B2 A>G G2 |] 
w: ||



